X:1
T:samisavnipiano
T:Donandı Her Yer
T:Unknown
T:Arr. by abu
%%score ( 1 2 )
L:1/8
Q:1/4=65
M:4/4
K:D
V:1 treble nm="Piano" snm="Pno."
V:2 treble 
V:1
"^\n" d4 cd e>d | d3 e/f/ e/d/c/B/ A2 | fe d>c B>A ff/e/ | e f2 e/d/ d4 || %4
V:2
 D2 A,2 E2 C2 | B,2 D2 G2 E2 | D2 F2 G2 G2 | E2 A2 D4 || %4

